X: 784
T: Peek-a-Boo Waltz
B: jims roots
M:3/4
L:1/8
Q: 1/4=100
K:D
V:1 
FG || "D"A2f2e2 | "G"d2c2B2 | "A"A2F2B2 | A4 FG | A2f2e2 | "E"d2c2d2 |
"A7"e3 ^d ef | e4 FG | "D"A2f2e2 | "G"d2c2B2 | "A"A2F2B2 | A4 A_B |
"G"=B2g2f2 | "A7"e2B2c2 | "D"d3 c de | d4 FG || "D"A4f2 | A4 A_B |
"G"=B4g2 | B4 Bd | "A7"c3 d c2 | B3 c B2 | "D"A3 B AG | F4 FG |
"D"A4f2 | A4 A_B | "G"=B4g2 | B4 Bd | "A7"c2B2A2 | g2f2e2 | "D"d2A2F2 | D4||
% abcbook-tune_id 6298c27936b58fcbc73887f5


% abcbook-boost 0
% abcbook-tablature 
% abcbook-transpose 
% abcbook-lastupdated 1654178426436
% abcbook-soundfonts 
% abcbook-repeats 1


